images/logo-paper-pen.svg

<?xml version="1.0" encoding="utf-8"?>
<!-- Generator: Adobe Illustrator 25.1.0, SVG Export Plug-In . SVG Version: 6.00 Build 0)  -->
<svg version="1.1" id="Capa_1" xmlns="http://www.w3.org/2000/svg" xmlns:xlink="http://www.w3.org/1999/xlink" x="0px" y="0px"
	 viewBox="0 0 512 512" style="enable-background:new 0 0 512 512;" xml:space="preserve">
<g>
	<g>
		<path d="M498.8,161.1c-17.5-17.5-46.1-17.5-63.6,0c-5.4,5.4-39.9,39.9-45.1,45.2V87.4c0-12-4.7-23.3-13.2-31.8l-42.4-42.4
			C325.9,4.7,314.6,0,302.6,0H45C20.2,0,0,20.2,0,45v422c0,24.8,20.2,45,45,45h300c24.8,0,45-20.2,45-45V333.6l108.8-108.9
			C516.4,207.2,516.4,178.7,498.8,161.1z M300,30c2.8,0,8.3-0.5,13.2,4.4l42.4,42.4c4.8,4.8,4.4,10,4.4,13.2h-60V30z M360,467
			c0,8.3-6.7,15-15,15H45c-8.3,0-15-6.7-15-15V45c0-8.3,6.7-15,15-15h225v75c0,8.3,6.7,15,15,15h75v116.3c0,0-44.3,44.3-44.3,44.3
			l-21.2,21.2c-1.6,1.6-2.9,3.7-3.6,5.9l-21.2,63.6c-1.8,5.4-0.4,11.3,3.6,15.4c4,4,10,5.4,15.4,3.6l63.6-21.2
			c2.2-0.7,4.2-2,5.9-3.6l1.8-1.8L360,467L360,467z M326.4,312.4l21.2,21.2l-8.1,8.1l-31.8,10.6l10.6-31.8L326.4,312.4z
			 M368.8,312.4l-21.2-21.2c11.3-11.3,61.5-61.5,72.1-72.2l21.2,21.2L368.8,312.4z M477.6,203.6L462.1,219l-21.2-21.2l15.5-15.5
			c5.9-5.8,15.4-5.8,21.2,0C483.4,188.2,483.5,197.7,477.6,203.6z"/>
	</g>
</g>
<g>
</g>
</svg>

<?xml version="1.0" encoding="UTF-8"?>
<svg width="512px" height="512px" viewBox="0 0 512 512" version="1.1" xmlns="http://www.w3.org/2000/svg" xmlns:xlink="http://www.w3.org/1999/xlink">
    <title>logo-paper-pen</title>
    <g id="website" stroke="none" stroke-width="1" fill="none" fill-rule="evenodd">
        <g id="logo-paper-pen" fill-rule="nonzero">
            <path d="M498.8,161.1 C481.3,143.6 452.7,143.6 435.2,161.1 C429.8,166.5 395.3,201 390.1,206.3 L390.1,87.4 C390.1,75.4 385.4,64.1 376.9,55.6 L334.5,13.2 C325.9,4.7 314.6,0 302.6,0 L45,0 C20.2,0 0,20.2 0,45 L0,467 C0,491.8 20.2,512 45,512 L345,512 C369.8,512 390,491.8 390,467 L390,333.6 L498.8,224.7 C516.4,207.2 516.4,178.7 498.8,161.1 Z" id="Shape" fill="#000000"></path>
            <path d="M300,30 C302.8,30 308.3,29.5 313.2,34.4 L355.6,76.8 C360.4,81.6 360,86.8 360,90 L300,90 L300,30 L300,30 Z" id="Path" fill="#FFFFFF"></path>
            <path d="M360,467 C360,475.3 353.3,482 345,482 L45,482 C36.7,482 30,475.3 30,467 L30,45 C30,36.7 36.7,30 45,30 L270,30 L270,105 C270,113.3 276.7,120 285,120 L360,120 L360,236.3 C360,236.3 315.7,280.6 315.7,280.6 L294.5,301.8 C292.9,303.4 291.6,305.5 290.9,307.7 L269.7,371.3 C267.9,376.7 269.3,382.6 273.3,386.7 C277.3,390.7 283.3,392.1 288.7,390.3 L352.3,369.1 C354.5,368.4 356.5,367.1 358.2,365.5 L360,363.7 L360,467 L360,467 Z" id="Path" fill="#FFFFFF"></path>
            <polygon id="Path" fill="#FFFFFF" points="326.4 312.4 347.6 333.6 339.5 341.7 307.7 352.3 318.3 320.5"></polygon>
            <path d="M368.8,312.4 L347.6,291.2 C358.9,279.9 409.1,229.7 419.7,219 L440.9,240.2 L368.8,312.4 Z" id="Path" fill="#FFFFFF"></path>
            <path d="M477.6,203.6 L462.1,219 L440.9,197.8 L456.4,182.3 C462.3,176.5 471.8,176.5 477.6,182.3 C483.4,188.2 483.5,197.7 477.6,203.6 Z" id="Path" fill="#FFFFFF"></path>
        </g>
    </g>
</svg>
